public/cloud-icons/azure/compute/container-instance.svg

<?xml version="1.0" encoding="UTF-8" standalone="no"?>
<!-- Generated by Microsoft Visio, SVG Export Container Instance.svg Page-1 -->

<svg
   xmlns:dc="http://purl.org/dc/elements/1.1/"
   xmlns:cc="http://creativecommons.org/ns#"
   xmlns:rdf="http://www.w3.org/1999/02/22-rdf-syntax-ns#"
   xmlns:svg="http://www.w3.org/2000/svg"
   xmlns="http://www.w3.org/2000/svg"
   xmlns:sodipodi="http://sodipodi.sourceforge.net/DTD/sodipodi-0.dtd"
   xmlns:inkscape="http://www.inkscape.org/namespaces/inkscape"
   width="53.860001"
   height="56.70459"
   viewBox="0 0 53.86 56.70459"
   xml:space="preserve"
   class="st6"
   version="1.1"
   id="svg53"
   sodipodi:docname="Container Instance.svg"
   style="font-size:12px;overflow:visible;color-interpolation-filters:sRGB;fill:none;fill-rule:evenodd;stroke-linecap:square;stroke-miterlimit:3"
   inkscape:version="0.92.5 (2060ec1f9f, 2020-04-08)"><metadata
   id="metadata57"><rdf:RDF><cc:Work
       rdf:about=""><dc:format>image/svg+xml</dc:format><dc:type
         rdf:resource="http://purl.org/dc/dcmitype/StillImage" /></cc:Work></rdf:RDF></metadata><sodipodi:namedview
   pagecolor="#ffffff"
   bordercolor="#666666"
   borderopacity="1"
   objecttolerance="10"
   gridtolerance="10"
   guidetolerance="10"
   inkscape:pageopacity="0"
   inkscape:pageshadow="2"
   inkscape:window-width="640"
   inkscape:window-height="480"
   id="namedview55"
   showgrid="false"
   inkscape:zoom="1.9171561"
   inkscape:cx="26.9293"
   inkscape:cy="27.539321"
   inkscape:window-x="0"
   inkscape:window-y="0"
   inkscape:window-maximized="0"
   inkscape:current-layer="svg53" />
	<style
   type="text/css"
   id="style2">
	<![CDATA[
		.st1 {fill:url(#grad0-5);stroke:none;stroke-linecap:butt;stroke-width:32.3827}
		.st2 {fill:#f2f2f2;stroke:none;stroke-linecap:butt;stroke-width:32.3827}
		.st3 {fill:#a67af4;stroke:none;stroke-linecap:butt;stroke-width:32.3827}
		.st4 {fill:#552f99;stroke:none;stroke-linecap:butt;stroke-width:32.3827}
		.st5 {fill:#b77af4;fill-opacity:0.75;stroke:none;stroke-linecap:butt;stroke-width:32.3827}
		.st6 {fill:none;fill-rule:evenodd;font-size:12px;overflow:visible;stroke-linecap:square;stroke-miterlimit:3}
	]]>
	</style>

	<defs
   id="Patterns_And_Gradients">
		<linearGradient
   id="grad0-5"
   x1="0"
   y1="102.26729"
   x2="45.014674"
   y2="102.26729"
   gradientTransform="scale(1.1964987,0.8357719)"
   gradientUnits="userSpaceOnUse">
			<stop
   offset="0"
   stop-color="#0078d4"
   stop-opacity="1"
   id="stop4" />
			<stop
   offset="0.16"
   stop-color="#1380da"
   stop-opacity="1"
   id="stop6" />
			<stop
   offset="0.53"
   stop-color="#3c91e5"
   stop-opacity="1"
   id="stop8" />
			<stop
   offset="0.82"
   stop-color="#559cec"
   stop-opacity="1"
   id="stop10" />
			<stop
   offset="1"
   stop-color="#5ea0ef"
   stop-opacity="1"
   id="stop12" />
		</linearGradient>
	</defs>
	<g
   id="g51"
   transform="translate(-32.3827,-32.38423)">
		<title
   id="title16">Page-1</title>
		<g
   id="group12292-1"
   transform="translate(32.3827,-34.0157)">
			<title
   id="title18">Container Instance.12292</title>
			<g
   id="shape12293-2"
   transform="translate(0,-19.0722)">
				<title
   id="title20">path17</title>
				<path
   d="M 53.86,111.31 A 12.0535,11.8923 -180 0 0 43.37,99.86 15.2104,15.0069 -180 0 0 27.68,85.48 15.6568,15.4474 -180 0 0 12.76,95.51 14.4451,14.2519 -180 0 0 0,109.2 14.6364,14.4406 -180 0 0 15.15,123.07 h 1.34 24.49 a 2.04081,2.01351 -180 0 0 0.63,0 12.2449,12.0811 -180 0 0 12.25,-11.76 z"
   class="st1"
   id="path22"
   inkscape:connector-curvature="0"
   style="fill:url(#grad0-5);stroke:none;stroke-width:32.38270187;stroke-linecap:butt" />
			</g>
			<g
   id="shape12294-6"
   transform="translate(18.4524,-24.634)">
				<title
   id="title25">path19</title>
				<path
   d="m 0.11,111.36 8.22,-8.11 a 0.988518,0.975294 0 0 1 1.40306,0 L 18,111.4 a 0.446427,0.440455 0 0 1 -0.318877,0.75507 L 12.61,112.15 a 0.41454,0.408994 -180 0 0 -0.446427,0.40899 L 12.16,122.75 a 0.350764,0.346072 0 0 1 -0.350765,0.34607 L 6.26,123.1 A 0.350764,0.346072 0 0 1 5.909236,122.75393 L 5.91,112.69 A 0.41454,0.408994 -180 0 0 5.623011,112.1237 L 0.39,112.12 a 0.446427,0.440455 0 0 1 -0.286989,-0.75507 z"
   class="st2"
   id="path27"
   inkscape:connector-curvature="0"
   style="fill:#f2f2f2;stroke:none;stroke-width:32.38270187;stroke-linecap:butt" />
			</g>
			<g
   id="shape12295-8"
   transform="translate(27.0726,-0.0629223)">
				<title
   id="title30">path21</title>
				<path
   d="m 15.69,102.24 a 0.446427,0.440455 -180 0 0 -0.28699,-0.40899 L 0.41,96.83 H 0 v 26.27 h 0.41 l 15.02,-5.92 a 0.41454,0.408994 -180 0 0 0.255102,-0.40899 z"
   class="st3"
   id="path32"
   inkscape:connector-curvature="0"
   style="fill:#a67af4;stroke:none;stroke-width:32.38270187;stroke-linecap:butt" />
			</g>
			<g
   id="shape12296-10"
   transform="translate(12.213)">
				<title
   id="title35">path23</title>
				<path
   d="M 14.76,96.86 0.38,99.47 a 0.446427,0.440455 -180 0 0 -0.382652,0.408994 L 0,119.51 a 0.446427,0.440455 -180 0 0 0.350764,0.44046 L 14.76,123.1 a 0.446427,0.440455 -180 0 0 0.510202,-0.44046 L 15.27,97.49 a 0.446427,0.440455 -180 0 0 -0.510202,-0.629222 z"
   class="st4"
   id="path37"
   inkscape:connector-curvature="0"
   style="fill:#552f99;stroke:none;stroke-width:32.38270187;stroke-linecap:butt" />
			</g>
			<g
   id="shape12297-12"
   transform="translate(20.3124,-3.27196)">
				<title
   id="title40">polygon25</title>
				<path
   d="M 5.01,103.18 0,104.03 v 18.28 l 5.01,0.79 z"
   class="st5"
   id="path42"
   inkscape:connector-curvature="0"
   style="fill:#b77af4;fill-opacity:0.75;stroke:none;stroke-width:32.38270187;stroke-linecap:butt" />
			</g>
			<g
   id="shape12298-14"
   transform="translate(14.1581,-4.46748)">
				<title
   id="title45">polygon27</title>
				<path
   d="M 4.37,105.51 0,106.24 v 15.98 l 4.37,0.88 z"
   class="st5"
   id="path47"
   inkscape:connector-curvature="0"
   style="fill:#b77af4;fill-opacity:0.75;stroke:none;stroke-width:32.38270187;stroke-linecap:butt" />
			</g>
		</g>
	</g>
</svg>

<svg xmlns="http://www.w3.org/2000/svg" xml:space="preserve" width="53.86" height="56.705" style="font-size:12px;overflow:visible;color-interpolation-filters:sRGB;fill-rule:evenodd;stroke-linecap:square;stroke-miterlimit:3" viewBox="0 0 53.86 56.705"><defs><linearGradient id="a" x1="0" x2="45.015" y1="102.267" y2="102.267" gradientTransform="scale(1.1965 .83577)" gradientUnits="userSpaceOnUse"><stop offset="0" stop-color="#0078d4"/><stop offset=".16" stop-color="#1380da"/><stop offset=".53" stop-color="#3c91e5"/><stop offset=".82" stop-color="#559cec"/><stop offset="1" stop-color="#5ea0ef"/></linearGradient></defs><g transform="translate(-32.383 -32.384)"><title>Page-1</title><g transform="translate(32.383 -34.016)"><title>Container Instance.12292</title><g transform="translate(0 -19.072)"><title>path17</title><path d="M53.86 111.31a12.054 11.892-180 0 0-10.49-11.45 15.21 15.007-180 0 0-15.69-14.38 15.657 15.447-180 0 0-14.92 10.03A14.445 14.252-180 0 0 0 109.2a14.636 14.44-180 0 0 15.15 13.87h25.83a2.04 2.014-180 0 0 .63 0 12.245 12.081-180 0 0 12.25-11.76" style="fill:url(#a);stroke:none;stroke-width:32.38270187;stroke-linecap:butt"/></g><g transform="translate(18.452 -24.634)"><title>path19</title><path d="m.11 111.36 8.22-8.11a.989.975 0 0 1 1.403 0L18 111.4a.446.44 0 0 1-.319.755l-5.071-.005a.415.409-180 0 0-.446.409l-.004 10.191a.35.346 0 0 1-.35.346l-5.55.004a.35.346 0 0 1-.35-.346V112.69a.415.409-180 0 0-.287-.566L.39 112.12a.446.44 0 0 1-.287-.755z" style="fill:#f2f2f2;stroke:none;stroke-width:32.38270187;stroke-linecap:butt"/></g><g transform="translate(27.073 -.063)"><title>path21</title><path d="M15.69 102.24a.446.44-180 0 0-.287-.409L.41 96.83H0v26.27h.41l15.02-5.92a.415.409-180 0 0 .255-.409z" style="fill:#a67af4;stroke:none;stroke-width:32.38270187;stroke-linecap:butt"/></g><g transform="translate(12.213)"><title>path23</title><path d="M14.76 96.86.38 99.47a.446.44-180 0 0-.383.409L0 119.51a.446.44-180 0 0 .35.44l14.41 3.15a.446.44-180 0 0 .51-.44V97.49a.446.44-180 0 0-.51-.63" style="fill:#552f99;stroke:none;stroke-width:32.38270187;stroke-linecap:butt"/></g><g transform="translate(20.312 -3.272)"><title>polygon25</title><path d="m5.01 103.18-5.01.85v18.28l5.01.79z" style="fill:#b77af4;fill-opacity:.75;stroke:none;stroke-width:32.38270187;stroke-linecap:butt"/></g><g transform="translate(14.158 -4.467)"><title>polygon27</title><path d="m4.37 105.51-4.37.73v15.98l4.37.88z" style="fill:#b77af4;fill-opacity:.75;stroke:none;stroke-width:32.38270187;stroke-linecap:butt"/></g></g></g></svg>
